img/logo-html-academy.svg

<svg width="161" height="47" viewBox="0 0 161 47" fill="#ffffff" xmlns="http://www.w3.org/2000/svg">
<path d="M0 18.0515V21.6618H3.44463V18.0515H0Z"/>
<path d="M16.3222 6.34812C14.1356 6.34812 12.3684 7.34096 11.2601 8.78508H11.1403V0H8.29473V21.6618H11.1403V14.2306C11.1403 11.2521 12.9974 9.11602 15.7232 9.11602C18.2991 9.11602 19.7968 11.0415 19.7968 13.6289V21.6618H22.6424V13.1174C22.6424 8.99568 20.0963 6.34812 16.3222 6.34812Z"/>
<path d="M37.3029 6.76932H30.5634V1.50429H27.7178V6.76932H25.022V9.53723H27.7178V17.9312C27.7178 20.3381 29.0657 21.6618 31.492 21.6618H37.3029V18.8638H32.0611C31.1026 18.8638 30.5634 18.3223 30.5634 17.3896V9.53723H37.3029V6.76932Z"/>
<path d="M57.6302 6.37821C55.3538 6.37821 53.6165 7.49139 52.658 9.26645H52.5681C51.6995 7.52147 50.082 6.37821 47.8654 6.37821C45.8885 6.37821 44.3908 7.43121 43.4922 8.90542H43.3724V6.76932H40.6467V21.6618H43.4922V14.02C43.4922 11.222 44.96 9.17619 47.1765 9.11602C49.2732 9.05585 50.5013 10.5601 50.5013 12.8166V21.6618H53.3469V13.7793C53.3469 10.4398 55.3238 9.11602 57.0312 9.11602C59.0979 9.11602 60.326 10.5601 60.326 12.8166V21.6618H63.1716V12.5157C63.1716 8.90542 61.1348 6.37821 57.6302 6.37821Z"/>
<path d="M67.0278 17.8108C67.0278 20.2478 68.4057 21.6618 70.9517 21.6618H73.7673V18.8939H71.3711C70.4126 18.8939 69.8734 18.3524 69.8734 17.4197V0H67.0278V17.8108Z"/>
<path d="M40.5093 27.6176H40.3893C39.279 26.1221 37.4786 25.0753 35.078 25.0454C30.667 24.9856 27.5162 28.2457 27.5162 32.8517C27.5162 37.4876 30.727 40.7477 35.048 40.6879C37.5086 40.658 39.279 39.5513 40.3893 37.9661H40.5093V40.2691H43.33V25.4641H40.5093V27.6176ZM35.4681 37.9362C32.3474 37.9362 30.3669 35.6631 30.3669 32.8517C30.3669 30.0402 32.3474 27.7671 35.4681 27.7671C38.4988 27.7671 40.4793 30.0402 40.4793 32.8517C40.4793 35.6332 38.4988 37.9362 35.4681 37.9362Z"/>
<path d="M61.9581 30.8478C61.2679 27.4979 58.2972 25.0454 54.3963 25.0454C49.6852 25.0454 46.5344 28.4849 46.5344 32.8517C46.5344 37.2184 49.6852 40.6879 54.3963 40.6879C58.2972 40.6879 61.2679 38.1755 61.9581 34.7958H58.9874C58.3872 36.68 56.6168 37.9661 54.4263 37.9661C51.3655 37.9661 49.3851 35.6631 49.3851 32.8517C49.3851 30.0402 51.3655 27.7671 54.4263 27.7671C56.7068 27.7671 58.3872 29.113 58.9874 30.8478H61.9581Z"/>
<path d="M77.1977 27.6176H77.0776C75.9674 26.1221 74.167 25.0753 71.7664 25.0454C67.3554 24.9856 64.2046 28.2457 64.2046 32.8517C64.2046 37.4876 67.4154 40.7477 71.7364 40.6879C74.197 40.658 75.9674 39.5513 77.0776 37.9661H77.1977V40.2691H80.0183V25.4641H77.1977V27.6176ZM72.1565 37.9362C69.0357 37.9362 67.0553 35.6631 67.0553 32.8517C67.0553 30.0402 69.0357 27.7671 72.1565 27.7671C75.1872 27.7671 77.1677 30.0402 77.1677 32.8517C77.1677 35.6332 75.1872 37.9362 72.1565 37.9362Z"/>
<path d="M96.2158 27.7671H96.0958C94.9856 26.1819 93.1251 25.0753 90.7546 25.0454C86.4335 24.9856 83.2228 28.2457 83.2228 32.8816C83.2228 37.4876 86.3735 40.7477 90.7846 40.6879C93.1251 40.658 94.9856 39.6111 96.0658 38.1157H96.2158V40.2691H99.0365V18.7346H96.2158V27.7671ZM91.1747 37.9661C88.0539 37.9661 86.0735 35.693 86.0735 32.8816C86.0735 30.0701 88.0539 27.797 91.1747 27.797C94.2054 27.797 96.1858 30.1 96.1858 32.8816C96.1858 35.693 94.2054 37.9661 91.1747 37.9661Z"/>
<path d="M109.776 25.0454C105.215 25.0454 102.094 28.5448 102.094 32.8816C102.094 37.0988 105.035 40.6879 109.836 40.6879C113.317 40.6879 116.108 38.8036 117.098 35.6631H114.127C113.467 37.0689 111.877 37.9661 109.956 37.9661C107.256 37.9661 105.335 36.1716 105.125 33.8686H117.398C117.788 28.9336 114.697 25.0454 109.776 25.0454ZM109.716 27.7671C112.087 27.7671 113.857 29.2327 114.307 31.3562H105.185C105.605 29.2626 107.376 27.7671 109.716 27.7671Z"/>
<path d="M137.622 25.0753C135.341 25.0753 133.601 26.1819 132.64 27.9466H132.55C131.68 26.2118 130.06 25.0753 127.839 25.0753C125.859 25.0753 124.359 26.1221 123.458 27.5877H123.338V25.4641H120.608V40.2691H123.458V32.6722C123.458 29.8907 124.929 27.8568 127.149 27.797C129.25 27.7372 130.48 29.2327 130.48 31.4759V40.2691H133.331V32.4329C133.331 29.113 135.311 27.797 137.022 27.797C139.092 27.797 140.322 29.2327 140.322 31.4759V40.2691H143.173V31.1768C143.173 27.5877 141.132 25.0753 137.622 25.0753Z"/>
<path d="M153.378 37.9063L148.277 25.4641H145.126L151.908 41.6749L151.878 41.7347C151.398 42.961 150.858 43.4096 149.537 43.4096H146.026V46.251H149.537C152.118 46.251 153.498 45.0845 154.458 42.5721L161 25.4641H158.089L153.378 37.9063Z"/>
</svg>

<svg width="161" height="47" fill="#fff" xmlns="http://www.w3.org/2000/svg"><path d="M0 18.05v3.61h3.44v-3.6H0zM16.32 6.35c-2.18 0-3.95 1-5.06 2.44h-.12V0H8.29v21.66h2.85v-7.43c0-2.98 1.86-5.11 4.58-5.11 2.58 0 4.08 1.92 4.08 4.5v8.04h2.84v-8.54c0-4.12-2.54-6.77-6.32-6.77zM37.3 6.77h-6.74V1.5h-2.84v5.27h-2.7v2.77h2.7v8.4c0 2.4 1.35 3.72 3.77 3.72h5.81v-2.8h-5.24c-.96 0-1.5-.54-1.5-1.47V9.54h6.74V6.77zM57.63 6.38a5.42 5.42 0 00-4.97 2.89h-.1a5.04 5.04 0 00-4.7-2.9 5.02 5.02 0 00-4.37 2.54h-.12V6.77h-2.72v14.9h2.84v-7.65c0-2.8 1.47-4.84 3.69-4.9 2.1-.06 3.32 1.44 3.32 3.7v8.84h2.85v-7.88c0-3.34 1.97-4.66 3.68-4.66 2.07 0 3.3 1.44 3.3 3.7v8.84h2.84v-9.14c0-3.61-2.04-6.14-5.54-6.14zM67.03 17.81c0 2.44 1.38 3.85 3.92 3.85h2.82V18.9h-2.4c-.96 0-1.5-.54-1.5-1.47V0h-2.84v17.81zM40.5 27.62h-.11a6.5 6.5 0 00-5.31-2.57c-4.41-.06-7.56 3.2-7.56 7.8 0 4.64 3.2 7.9 7.53 7.84a6.35 6.35 0 005.34-2.72h.12v2.3h2.82v-14.8h-2.82v2.15zm-5.03 10.32a4.9 4.9 0 01-5.1-5.09 4.9 4.9 0 015.1-5.08 4.89 4.89 0 015 5.08 4.9 4.9 0 01-5 5.09zM61.96 30.85c-.7-3.35-3.66-5.8-7.56-5.8a7.58 7.58 0 00-7.87 7.8 7.6 7.6 0 007.87 7.84c3.9 0 6.87-2.51 7.56-5.9h-2.97a4.65 4.65 0 01-4.56 3.18 4.92 4.92 0 01-5.04-5.12 4.9 4.9 0 015.04-5.08 4.68 4.68 0 014.56 3.08h2.97zM77.2 27.62h-.12a6.5 6.5 0 00-5.31-2.57c-4.41-.06-7.57 3.2-7.57 7.8 0 4.64 3.22 7.9 7.54 7.84a6.35 6.35 0 005.34-2.72h.12v2.3h2.82v-14.8H77.2v2.15zm-5.04 10.32a4.9 4.9 0 01-5.1-5.09 4.9 4.9 0 015.1-5.08 4.89 4.89 0 015 5.08 4.9 4.9 0 01-5 5.09zM96.22 27.77h-.12a6.47 6.47 0 00-5.35-2.72c-4.32-.06-7.53 3.2-7.53 7.83 0 4.6 3.15 7.87 7.56 7.8a6.48 6.48 0 005.29-2.56h.15v2.15h2.82V18.73h-2.82v9.04zm-5.05 10.2a4.9 4.9 0 01-5.1-5.09 4.9 4.9 0 015.1-5.08 4.9 4.9 0 015.02 5.08 4.89 4.89 0 01-5.02 5.09zM109.78 25.05c-4.56 0-7.69 3.5-7.69 7.83 0 4.22 2.94 7.8 7.75 7.8 3.48 0 6.27-1.88 7.26-5.02h-2.97c-.66 1.4-2.25 2.3-4.17 2.3-2.7 0-4.63-1.79-4.83-4.1h12.27c.39-4.93-2.7-8.81-7.62-8.81zm-.06 2.72a4.5 4.5 0 014.59 3.59h-9.13a4.46 4.46 0 014.54-3.6zM137.62 25.08a5.44 5.44 0 00-4.98 2.87h-.09a5.05 5.05 0 00-4.71-2.87 5.04 5.04 0 00-4.38 2.5h-.12v-2.12h-2.73v14.8h2.85v-7.59c0-2.78 1.47-4.81 3.69-4.87 2.1-.06 3.33 1.43 3.33 3.68v8.79h2.85v-7.84c0-3.32 1.98-4.63 3.7-4.63 2.06 0 3.3 1.43 3.3 3.68v8.79h2.84v-9.1c0-3.58-2.04-6.1-5.55-6.1zM153.38 37.9l-5.1-12.44h-3.15l6.78 16.21-.03.06c-.48 1.23-1.02 1.68-2.34 1.68h-3.51v2.84h3.5c2.59 0 3.97-1.17 4.93-3.68l6.54-17.1h-2.91l-4.71 12.44z"/></svg>
